packages/foundations/assets/icons/functional/images/maps/location_crosshairs_12.svg

<svg width="12" height="12" viewBox="0 0 12 12" fill="none" xmlns="http://www.w3.org/2000/svg">
<g clip-path="url(#clip0_232_307)">
<path fill-rule="evenodd" clip-rule="evenodd" d="M5.99998 1.07692C6.34614 1.07692 6.61537 1.34615 6.61537 1.6923V2.32689C8.17303 2.59618 9.4038 3.82695 9.67309 5.38461H10.3077C10.6731 5.38461 10.9231 5.65384 10.9231 6C10.9231 6.32689 10.6731 6.61538 10.3077 6.61538H9.67309C9.4038 8.17304 8.17303 9.40381 6.61537 9.65384V10.3077C6.61537 10.6538 6.34614 10.9231 5.99998 10.9231C5.65383 10.9231 5.3846 10.6538 5.3846 10.3077V9.65384C3.82694 9.40381 2.59617 8.17304 2.32687 6.61538H1.69229C1.4038 6.61538 1.0769 6.40381 1.0769 6C1.0769 5.65384 1.3654 5.38461 1.69229 5.38461H2.32687C2.59617 3.82695 3.82694 2.59618 5.3846 2.32689V1.6923C5.3846 1.34615 5.65383 1.07692 5.99998 1.07692ZM5.99998 3.53846C4.63457 3.53846 3.53844 4.63458 3.53844 6C3.53844 7.36541 4.63457 8.46154 5.99998 8.46154C7.3654 8.46154 8.46152 7.36541 8.46152 6C8.46152 4.63458 7.3654 3.53846 5.99998 3.53846ZM4.76921 6C4.76921 6.6731 5.32687 7.23077 5.99998 7.23077C6.67309 7.23077 7.23075 6.6731 7.23075 6C7.23075 5.32689 6.67309 4.76923 5.99998 4.76923C5.32687 4.76923 4.76921 5.32689 4.76921 6Z" fill="#1A1C1F"/>
</g>
<defs>
<clipPath id="clip0_232_307">
<rect width="12" height="12" fill="white"/>
</clipPath>
</defs>
</svg>

<svg xmlns="http://www.w3.org/2000/svg" width="12" height="12" fill="none"><g clip-path="url(#a)"><path fill="#1A1C1F" fill-rule="evenodd" d="M6 1.077c.346 0 .615.27.615.615v.635a3.76 3.76 0 0 1 3.058 3.058h.635c.365 0 .615.269.615.615 0 .327-.25.615-.615.615h-.635a3.72 3.72 0 0 1-3.058 3.039v.654c0 .346-.269.615-.615.615a.61.61 0 0 1-.615-.615v-.654a3.72 3.72 0 0 1-3.058-3.039h-.635A.606.606 0 0 1 1.077 6a.62.62 0 0 1 .615-.615h.635a3.76 3.76 0 0 1 3.058-3.058v-.635c0-.346.269-.615.615-.615m0 2.461A2.454 2.454 0 0 0 3.538 6 2.454 2.454 0 0 0 6 8.462 2.454 2.454 0 0 0 8.462 6 2.454 2.454 0 0 0 6 3.538M4.77 6c0 .673.557 1.23 1.23 1.23A1.24 1.24 0 0 0 7.23 6 1.24 1.24 0 0 0 6 4.77 1.24 1.24 0 0 0 4.77 6" clip-rule="evenodd"/></g><defs><clipPath id="a"><path fill="#fff" d="M0 0h12v12H0z"/></clipPath></defs></svg>
